!!!COM: Palestrina, Giovanni Perluigi da
!!!OPR: Missa In duplicibus minoribus (I)
!!!OMD: Gloria
!!!OTL: Domine Deus Agnus
**kern	**kern	**kern	**kern	**kern
*Ibass	*Itenor	*Itenor	*Icalto	*Icant
!Bassus	!Tenor 2	!Tenor 1	!Altus	!Cantus
*clefF4	*clefGv2	*clefGv2	*clefG2	*clefG2
*k[]	*k[]	*k[]	*k[]	*k[]
*E:phr	*E:phr	*E:phr	*E:phr	*E:phr
*M4/2	*M4/2	*M4/2	*M4/2	*M4/2
=54	=54	=54	=54	=54
0r	0r	1B	1r	0r
.	.	1c	1e	.
=55	=55	=55	=55	=55
0r	0r	2A	1f	0r
.	.	2F	.	.
.	.	2G	2d	.
.	.	2A	2c	.
=56	=56	=56	=56	=56
1r	1B	0G	1d	0r
1E	[1c	.	1e	.
=57	=57	=57	=57	=57
1F	2c]	2r	2A	0r
.	2A	2c	2.f	.
2D	2B	2d	.	.
.	.	.	4d	.
2C	2c	2e	[2g	.
=58	=58	=58	=58	=58
1D	4B	2.d	4g]	1r
.	4A	.	4f	.
.	1A	.	2f	.
.	.	4c	.	.
1E	.	1B	1e	1b
.	2G#	.	.	.
=59	=59	=59	=59	=59
1AA	2A	1A	1.e	1cc
.	1c	.	.	.
1r	.	1r	.	2a
.	2B	.	2d	2g
=60	=60	=60	=60	=60
1r	2c	1r	2e	1a
.	2d	.	2f#	.
2r	4G	2r	1g	1b
.	4A	.	.	.
2E	4B	2G	.	.
.	4c	.	.	.
=61	=61	=61	=61	=61
2F	1d	2A	2r	0r
1G	.	1B	2d	.
.	2G	.	2e	.
4F	2A	[2A	[2f	.
4E	.	.	.	.
=62	=62	=62	=62	=62
2D	1B	2A]	2f]	0r
2E	.	2G	1e	.
1F	1A	2r	.	.
.	.	2A	2d	.
=63	=63	=63	=63	=63
1E	2r	2B	1e	1g
.	2E	1c	.	.
1r	2F	.	2r	2a
.	[2G	4B	2d	[2b
.	.	4A	.	.
=64	=64	=64	=64	=64
0r	2G]	2G	2e	2b]
.	4F	2A	1f	1a
.	4E	.	.	.
.	2D	1B	.	.
.	2E	.	4e	2g#
.	.	.	4d	.
=65	=65	=65	=65	=65
2r	1F	1A	2.c	2a
1A	.	.	.	1cc
.	.	.	4d	.
.	[1E	1r	1e	.
4G#	.	.	.	4b
4F#	.	.	.	4a
=66	=66	=66	=66	=66
2G#	1E]	0r	2e	2b
2G#	.	.	1e	2b
1A	1r	.	.	1cc
.	.	.	4d	.
.	.	.	4c	.
=67	=67	=67	=67	=67
2G	1r	1r	2d	2b
2F	.	.	2d	2a
2E	2r	2r	1e	1g
4C	[2e	[2c	.	.
4D	.	.	.	.
=68	=68	=68	=68	=68
4E	2e]	2c]	1g	1r
4F	.	.	.	.
1G	4d	4B	.	.
.	4c	4A	.	.
.	2d	2B	1G	1g
2G	2d	2B	.	.
=69	=69	=69	=69	=69
1C	1e	1c	2r	2g
.	.	.	2g	2e
1D	1d	[1A	2f	2.a
.	.	.	2f	.
.	.	.	.	4b
=70	=70	=70	=70	=70
0AA	0c	0A]	0e	1cc
.	.	.	.	1a
=71	=71	=71	=71	=71
[0E	[0B	[0G#	[0e	[0b
=72	=72	=72	=72	=72
0E]	0B]	0G#]	0e]	0b]
*-	*-	*-	*-	*-
!!!CDT: 1525/^1526/-1594/2/2
!!!OCY: Italia
!!!AGN: Mass (Paraphrase)
!!!AST: renaissance, vocal
!!!ASW: Gregorian Mass
!!!PWK: Masses, Book Mantuan I
!!!RNB: Cadence finals: A
!!!YOR: Le Opere Complete, v. 18, p. 42
!!!YOO: Rome, Italy: Fratelli Scalera
!!!END: 1992//
!!!EED: John Miller
!!!YEC: Copyright 2000, John Miller
!!!YEN: United States of America
!!!YEM: Rights to all derivative electronic formats reserved.
!!!YEM: Refer to licensing agreement for further details.
!!!YEM: This file must be accompanied by the licensing agreement.
!!!YEM: A copy of the licensing agreement may be found at http://www.music-cog.ohio-state.edu/HumdrumDatabases/Palestrina/license.txt
!!!EMD: converted to Humdrum by Bret Aarden
